X:1
T:Title
%%score { 1 | ( 2 3 ) }
L:1/8
Q:1/4=100
M:6/4
K:Db
V:1 treble nm="Grand Piano"
V:2 bass 
V:3 bass 
V:1
 D2 F2 [FB]2 [FA]4 [FA][FA] | [FA]2 [FB]2 [FA]2 [CEA]2 [CEG]4 | %2
w: William~Stone * * * * *||
 [EGc]3 [DGB] [CGA]2 [CEG]3 [CEA] [A,CG]2 | G3 F _F2 =F6 | c2 c2 d2 e6 | %5
w: |||
 [CEG]2 [CEA]2 [A,CG]2 [A,DF]4 [Fd]2 | [Fd]2 [FA]2 [FA]2 [GB]2 [G,B,Gd]4 | %7
w: ||
 [CEG]2 [A,DF]2[K:bass] .[A,CE]2 [F,A,D]6 |[M:1/4][K:treble] F2 |[M:6/4] F2 E2 D2 D2 C2 GG | %10
w: |||
 G2 F2 E2 E2 D2 [Fd]2 | [Fd]3 [Fc] [FB]2 [Fd]2 [FA]2 F2 | E3 F G2 [A,CG]4 F2 | F2 E2 D2 D2 C2 GG | %14
w: ||||
 G2 F2 E2 E2 D2 [Fd]2 |[M:7/4] [Fd]2 [FA]2 [FA]2 [GB]2 [G,B,Gd]6 | %16
w: ||
[M:6/4] [CEG]2 [A,DF]2[K:bass] .[A,CE]2 [F,A,D]6 |] %17
w: |
V:2
 [D,F,A,]2 [D,A,D]2 [D,D]2 [D,D]4 [D,D][D,D] | [D,D]2 [D,D]2 [D,D]2 A,,2 A,,4 | %2
 A,3 A, A,2 A,,3 A,, A,,2 | [D,B,D]3 [D,A,D] [D,=G,D]2 [D,A,D]6 | [A,E]2 [A,EG]2 [A,DF]2 [A,CG]6 | %5
 A,,2 A,,2 A,,2 D,4 [D,A,]2 | [D,A,]2 [D,D]2 [D,D]2 [D,D]2 G,,4 | A,,2 .A,,3 G, D,6 |[M:1/4] A,2 | %9
[M:6/4] A,2 G,2 F,2 F,2 E,2 B,B, | B,2 A,2 G,2 G,2 F,2 [D,A,]2 | %11
 [D,A,]3 [D,D] [D,D]2 [D,A,]2 [D,D]2 [D,A,D]2 | [G,A,C]3 [F,A,D] [E,A,C]2 A,,4 A,2 | %13
 A,2 G,2 F,2 F,2 E,2 B,B, | B,2 A,2 G,2 G,2 F,2 [D,A,]2 |[M:7/4] [D,A,]2 [D,D]2 [D,D]2 D2 G,,6 | %16
[M:6/4] A,,2 .A,,3 G, D,6 |] %17
V:3
 x12 | x12 | x12 | x12 | x12 | x12 | x12 | z4 A,,2 z6 |[M:1/4] x2 |[M:6/4] x12 | x12 | x12 | x12 | %13
 x12 | x12 |[M:7/4] x14 |[M:6/4] z4 A,,2 z6 |] %17

